Papirus/64x64/mimetypes/application-x-iso.svg

<?xml version="1.0" encoding="UTF-8" standalone="no"?>
<svg
   id="_图层_1"
   data-name="图层_1"
   version="1.1"
   viewBox="0 0 128 128"
   width="64"
   height="64"
   sodipodi:docname="application-x-iso.svg"
   xml:space="preserve"
   inkscape:version="1.4 (e7c3feb100, 2024-10-09)"
   xmlns:inkscape="http://www.inkscape.org/namespaces/inkscape"
   xmlns:sodipodi="http://sodipodi.sourceforge.net/DTD/sodipodi-0.dtd"
   xmlns="http://www.w3.org/2000/svg"
   xmlns:svg="http://www.w3.org/2000/svg"><sodipodi:namedview
     id="namedview3"
     pagecolor="#505050"
     bordercolor="#eeeeee"
     borderopacity="1"
     inkscape:showpageshadow="0"
     inkscape:pageopacity="0"
     inkscape:pagecheckerboard="0"
     inkscape:deskcolor="#505050"
     inkscape:zoom="10.6875"
     inkscape:cx="32"
     inkscape:cy="41.263158"
     inkscape:window-width="1920"
     inkscape:window-height="939"
     inkscape:window-x="0"
     inkscape:window-y="34"
     inkscape:window-maximized="1"
     inkscape:current-layer="_图层_1"
     showguides="true"><sodipodi:guide
       position="7.6134526,83.439664"
       orientation="1,0"
       id="guide7"
       inkscape:locked="false" /><sodipodi:guide
       position="120.24109,71.856006"
       orientation="1,0"
       id="guide8"
       inkscape:locked="false" /></sodipodi:namedview><!-- Generator: Adobe Illustrator 29.0.1, SVG Export Plug-In . SVG Version: 2.1.0 Build 192)  --><defs
     id="defs1"><style
       id="style1">
      .st0 {
        fill: #0071e9;
      }

      .st1 {
        fill: #fff;
      }

      .st2 {
        fill: #5aaaff;
        isolation: isolate;
        opacity: .5;
      }
    </style><style
       id="style1-6">
      .st0 {
        fill: #0071e9;
      }

      .st1 {
        fill: #fff;
      }

      .st2 {
        fill: #5aaaff;
        isolation: isolate;
        opacity: .5;
      }
    </style></defs><path
     class="st0"
     d="M18.2,0c-5.6,0-10.2,4.6-10.2,10.2v107.6c0,5.6,4.6,10.2,10.2,10.2h91.6c5.6,0,10.2-4.6,10.2-10.2V40.6L82.2,0H18.2Z"
     id="path1"
     style="fill:#ce5068;fill-opacity:1" /><path
     class="st2"
     d="m 82.761404,2.619883 v 29.2 c 0,3.2 2.145542,11.6 11.89801,11.6 h 24.966316 z"
     id="path2"
     style="fill:#a54053;fill-opacity:1;stroke-width:0.987546" /><path
     class="st2"
     d="M 82.116964,0.02339171 V 29.223392 c 0,3.2 2.2,11.6 12.2,11.6 h 25.599996 z"
     id="path2-3"
     style="opacity:1;isolation:isolate;fill:#ef8b9d;fill-opacity:1" /><g
     id="g9"
     transform="matrix(2.5486443,0,0,2.2823433,-17.650186,-9.0416538)"><path
       style="opacity:0.2"
       d="m 32,28 c -7.756,0 -14,6.244 -14,14 0,7.756 6.244,14 14,14 7.756,0 14,-6.244 14,-14 0,-7.756 -6.244,-14 -14,-14 z m 0,8 a 6,6 0 0 1 6,6 6,6 0 0 1 -6,6 6,6 0 0 1 -6,-6 6,6 0 0 1 6,-6 z"
       id="path6" /><path
       style="fill:#ffffff"
       d="m 32,27 c -7.756,0 -14,6.244 -14,14 0,7.756 6.244,14 14,14 7.756,0 14,-6.244 14,-14 0,-7.756 -6.244,-14 -14,-14 z m 0,8 a 6,6 0 0 1 6,6 6,6 0 0 1 -6,6 6,6 0 0 1 -6,-6 6,6 0 0 1 6,-6 z"
       id="path7" /><path
       style="opacity:0.5;fill:#ffffff"
       d="m 32,34 a 7,7 0 0 0 -7,7 7,7 0 0 0 7,7 7,7 0 0 0 7,-7 7,7 0 0 0 -7,-7 z m 0,4 c 1.6569,0 3,1.3431 3,3 0,1.6569 -1.3431,3 -3,3 -1.6569,0 -3,-1.3431 -3,-3 0,-1.6569 1.3431,-3 3,-3 z"
       id="path8" /></g></svg>

<svg xmlns="http://www.w3.org/2000/svg" width="64" height="64" version="1.1">
 <path style="opacity:0.2" d="M 12.75,5 C 11.2265,5 10,6.2488 10,7.8 v 50.4 c 0,1.55008 1.2265,2.8 2.75,2.8 h 38.5 C 52.7724,61 54,59.75008 54,58.2 V 23 L 40,19 36,5 Z"/>
 <path style="fill:#ce5068" d="M 12.75,4 C 11.2265,4 10,5.2488 10,6.8 v 50.4 c 0,1.55008 1.2265,2.8 2.75,2.8 h 38.5 C 52.7724,60 54,58.75008 54,57.2 V 22 L 40,18 36,4 Z"/>
 <path style="opacity:0.2" d="M 54,23 36,5 V 20.1875 C 36,21.74675 37.2555,23 38.8125,23 Z"/>
 <path style="fill:#ef8b9d" d="M 54,22 36,4 V 19.1875 C 36,20.74675 37.2555,22 38.8125,22 Z"/>
 <path style="opacity:0.2;fill:#ffffff" d="M 12.75 4 C 11.2265 4 10 5.2495812 10 6.8007812 L 10 7.8007812 C 10 6.2495813 11.2265 5 12.75 5 L 36 5 L 36 4 L 12.75 4 z"/>
 <path style="opacity:0.2" d="m 32,28 c -7.756,0 -14,6.244 -14,14 0,7.756 6.244,14 14,14 7.756,0 14,-6.244 14,-14 0,-7.756 -6.244,-14 -14,-14 z m 0,8 a 6,6 0 0 1 6,6 6,6 0 0 1 -6,6 6,6 0 0 1 -6,-6 6,6 0 0 1 6,-6 z"/>
 <path style="fill:#ffffff" d="M 32 27 C 24.244 27 18 33.244 18 41 C 18 48.756 24.244 55 32 55 C 39.756 55 46 48.756 46 41 C 46 33.244 39.756 27 32 27 z M 32 35 A 6 6 0 0 1 38 41 A 6 6 0 0 1 32 47 A 6 6 0 0 1 26 41 A 6 6 0 0 1 32 35 z"/>
 <path style="opacity:0.5;fill:#ffffff" d="M 32 34 A 7 7 0 0 0 25 41 A 7 7 0 0 0 32 48 A 7 7 0 0 0 39 41 A 7 7 0 0 0 32 34 z M 32 38 C 33.6569 38 35 39.3431 35 41 C 35 42.6569 33.6569 44 32 44 C 30.3431 44 29 42.6569 29 41 C 29 39.3431 30.3431 38 32 38 z"/>
</svg>
